Obsidian-SemiLight/actions/22s/handle-left.svg

<svg viewBox="0 0 22 22" xmlns="http://www.w3.org/2000/svg"><path d="m7 4-4 7 4 7v-3l-2-4 2-4zm2 0v2h2v-2zm4 0v2h2v-2zm4 0v2h2v-2zm-8 4v2h2v-2zm4 0v2h2v-2zm4 0v2h2v-2zm-8 4v2h2v-2zm4 0v2h2v-2zm4 0v2h2v-2zm-8 4v2h2v-2zm4 0v2h2v-2zm4 0v2h2v-2z" fill="#4d4d4d"/></svg>

<svg xmlns="http://www.w3.org/2000/svg" viewBox="0 0 22 22">
  <defs id="defs3051">
    <style type="text/css" id="current-color-scheme">
      .ColorScheme-Text {
        color:#4d4d4d;
      }
      </style>
  </defs>
 <path 
    style="fill:currentColor;fill-opacity:1;stroke:none" 
    d="M 7 4 L 3 11 L 7 18 L 7 15 L 5 11 L 7 7 L 7 4 z M 9 4 L 9 6 L 11 6 L 11 4 L 9 4 z M 13 4 L 13 6 L 15 6 L 15 4 L 13 4 z M 17 4 L 17 6 L 19 6 L 19 4 L 17 4 z M 9 8 L 9 10 L 11 10 L 11 8 L 9 8 z M 13 8 L 13 10 L 15 10 L 15 8 L 13 8 z M 17 8 L 17 10 L 19 10 L 19 8 L 17 8 z M 9 12 L 9 14 L 11 14 L 11 12 L 9 12 z M 13 12 L 13 14 L 15 14 L 15 12 L 13 12 z M 17 12 L 17 14 L 19 14 L 19 12 L 17 12 z M 9 16 L 9 18 L 11 18 L 11 16 L 9 16 z M 13 16 L 13 18 L 15 18 L 15 16 L 13 16 z M 17 16 L 17 18 L 19 18 L 19 16 L 17 16 z "
    class="ColorScheme-Text"
    />  
</svg>
